**harm	**harte	**silbe	**rhyme	**timestamp	**phrase	**leadinstrument	**kern
*M4/4	*M4/4	*	*	*	*	*	*
*	*	*	*	*	*	*	*
*	*	*	*	*	*	*	*
*	*	*	*	*	*	*	*
*	*	*	*	*	*	*	*
*E-:	*E-:	*	*	*	*	*	*E-:
1r;	N	.	.	0	.	r	1r;
=1	=1	=1	=1	=1	=1	=1	=1
*>Letter>A	*>Letter>A	*>Letter>A	*>Letter>A	*>Letter>A	*>Letter>A	*>Letter>A	*>Letter>A
*>Label>Intro	*>Label>Intro	*>Label>Intro	*>Label>Intro	*>Label>Intro	*>Label>Intro	*>Label>Intro	*>Label>Intro
1I	E-:maj	.	.	0.325	newline	synth	1E- 1g 1b-
=2	=2	=2	=2	=2	=2	=2	=2
2ii7	F:min9	.	.	2.992	.	synth	1F 1a- 1cc 1ee-
2V	B-:sus4(b7)	.	.	4.325	.	synth	2B- 2dd 2ff
=3	=3	=3	=3	=3	=3	=3	=3
1I	E-:maj	.	.	5.658	.	synth	1E- 1g 1b-
=4	=4	=4	=4	=4	=4	=4	=4
2ivm7	A-:min9	.	.	8.324	.	synth	1A- 1cc- 1ee- 1gg
2-VIIm7	D-:9	.	.	9.658	.	synth	2D- 2f 2a- 2cc
=5	=5	=5	=5	=5	=5	=5	=5
*D:	*D:	*	*	*	*	*	*D:
2iii7	F#:min9	.	.	10.991	.	synth	1F# 1a 1cc# 1ee
2VI7	B:9	.	.	12.324	.	synth	2B 2dd# 2ff# 2aa
=6	=6	=6	=6	=6	=6	=6	=6
2ii7	E:min9	.	.	13.657	.	synth	1E 1g 1b 1dd
2V7c	A:9/5	.	.	14.99	.	synth	2a 2cc# 2E 2gg
=7	=7	=7	=7	=7	=7	=7	=7
1I	D:maj	.	.	16.324	newline	synth	1D 1f# 1a
=8	=8	=8	=8	=8	=8	=8	=8
1I	D:maj	.	.	18.855	.	synth	1D 1f# 1a
=9	=9	=9	=9	=9	=9	=9	=9
*>Letter>B	*>Letter>B	*>Letter>B	*>Letter>B	*>Letter>B	*>Letter>B	*>Letter>B	*>Letter>B
*>Label>Verse	*>Label>Verse	*>Label>Verse	*>Label>Verse	*>Label>Verse	*>Label>Verse	*>Label>Verse	*>Label>Verse
1IV7	G:maj7	Fri-	.	21.387	newline	voice	1G 1b 1dd 1ff#
.	.	-day	.	.	.	.	.
.	.	night,	A	.	.	.	.
.	.	_	.	.	.	.	.
.	.	it	.	.	.	.	.
.	.	was	.	.	.	.	.
.	.	late	B	.	.	.	.
.	.	_	.	.	.	.	.
.	.	I	.	.	.	.	.
.	.	was	.	.	.	.	.
.	.	wal-	.	.	.	.	.
.	.	-king	.	.	.	.	.
.	.	you	.	.	.	.	.
.	.	home	.	.	.	.	.
=10	=10	=10	=10	=10	=10	=10	=10
1IV7	G:maj7	_	.	23.962	.	voice	1G 1b 1dd 1ff#
.	.	We	.	.	.	.	.
.	.	got	.	.	.	.	.
.	.	_	.	.	.	.	.
.	.	down	.	.	.	.	.
.	.	to	.	.	.	.	.
.	.	_	.	.	.	.	.
.	.	the	.	.	.	.	.
.	.	gate	B	.	.	.	.
.	.	And	.	.	.	.	.
.	.	I	.	.	.	.	.
.	.	was	.	.	.	.	.
=11	=11	=11	=11	=11	=11	=11	=11
1-VIIm7	C:9(13,#11)	dream-	.	26.537	.	voice	1C 1e 1g 1b
.	.	-ing	.	.	.	.	.
.	.	of	.	.	.	.	.
.	.	_	.	.	.	.	.
.	.	the	.	.	.	.	.
.	.	night	A	.	.	.	.
.	.	_	.	.	.	.	.
=12	=12	=12	=12	=12	=12	=12	=12
1-VIIm7	C:9(13,#11)	.	.	29.112	.	voice	1C 1e 1g 1b
=13	=13	=13	=13	=13	=13	=13	=13
1VI7	B:9	Would	.	31.688	.	voice	1B 1dd# 1ff# 1aa
.	.	it	.	.	.	.	.
.	.	turn	.	.	.	.	.
.	.	_	.	.	.	.	.
.	.	out	.	.	.	.	.
.	.	right?	A	.	.	.	.
.	.	_	.	.	.	.	.
=14	=14	=14	=14	=14	=14	=14	=14
1VI7	B:9	.	.	34.263	.	voice	1B 1dd# 1ff# 1aa
.	.	.	.	.	.	.	.
.	.	How	.	.	.	.	.
.	.	to	.	.	.	.	.
=15	=15	=15	=15	=15	=15	=15	=15
1IV7	G:maj7	tell	.	36.838	newline	voice	1G 1b 1dd 1ff#
.	.	you,	.	.	.	.	.
.	.	girl	C	.	.	.	.
.	.	_	.	.	.	.	.
=16	=16	=16	=16	=16	=16	=16	=16
1IV7	G:maj7	.	.	39.387	.	voice	1G 1b 1dd 1ff#
.	.	.	.	.	.	.	.
.	.	I	.	.	.	.	.
.	.	wan-	.	.	.	.	.
.	.	-na	.	.	.	.	.
.	.	build	.	.	.	.	.
=17	=17	=17	=17	=17	=17	=17	=17
1-VIIm7	C:9(13,#11)	_	.	41.936	.	voice	1C 1e 1g 1b
.	.	my	.	.	.	.	.
.	.	world	C	.	.	.	.
.	.	a-	.	.	.	.	.
.	.	-round	.	.	.	.	.
.	.	_	.	.	.	.	.
.	.	you	D	.	.	.	.
.	.	_	.	.	.	.	.
=18	=18	=18	=18	=18	=18	=18	=18
1-VIIm7	C:9(13,#11)	.	.	44.484	.	voice	1C 1e 1g 1b
=19	=19	=19	=19	=19	=19	=19	=19
1VI7	B:9	Tell	.	47.033	.	voice	1B 1dd# 1ff# 1aa
.	.	you	.	.	.	.	.
.	.	that	.	.	.	.	.
.	.	it's	.	.	.	.	.
.	.	true	D	.	.	.	.
.	.	_	.	.	.	.	.
.	.	_	.	.	.	.	.
.	.	_	.	.	.	.	.
.	.	_	.	.	.	.	.
=20	=20	=20	=20	=20	=20	=20	=20
1VI7	B:9	.	.	49.582	.	voice	1B 1dd# 1ff# 1aa
=21	=21	=21	=21	=21	=21	=21	=21
*>Letter>C	*>Letter>C	*>Letter>C	*>Letter>C	*>Letter>C	*>Letter>C	*>Letter>C	*>Letter>C
*>Label>Chorus	*>Label>Chorus	*>Label>Chorus	*>Label>Chorus	*>Label>Chorus	*>Label>Chorus	*>Label>Chorus	*>Label>Chorus
1IV7	G:maj7	.	.	52.131	newline	voice	1G 1b 1dd 1ff#
.	.	I	.	.	.	.	.
.	.	wan-	.	.	.	.	.
.	.	-na	.	.	.	.	.
.	.	make	.	.	.	.	.
.	.	you	.	.	.	.	.
.	.	un-	.	.	.	.	.
.	.	_	.	.	.	.	.
.	.	-der-	.	.	.	.	.
.	.	-stand	E	.	.	.	.
.	.	_	.	.	.	.	.
.	.	I'm	.	.	.	.	.
=22	=22	=22	=22	=22	=22	=22	=22
1-VIm7	B-:9	tal-	.	54.679	.	voice	1B- 1dd 1ff 1aa
.	.	-king	.	.	.	.	.
.	.	a-	.	.	.	.	.
.	.	-bout	.	.	.	.	.
.	.	_	.	.	.	.	.
.	.	a	.	.	.	.	.
.	.	life	.	.	.	.	.
.	.	_	.	.	.	.	.
.	.	time	.	.	.	.	.
.	.	_	.	.	.	.	.
.	.	plan	E	.	.	.	.
=23	=23	=23	=23	=23	=23	=23	=23
2I	D:maj	_	.	57.228	.	voice	1D 1f# 1a
2IVc	G:maj/5	.	.	58.502	.	voice	2g 2b 2D
=24	=24	=24	=24	=24	=24	=24	=24
1I	D:maj	.	.	59.776	.	voice	1D 1f# 1a
=25	=25	=25	=25	=25	=25	=25	=25
*>Letter>B	*>Letter>B	*>Letter>B	*>Letter>B	*>Letter>B	*>Letter>B	*>Letter>B	*>Letter>B
*>Label>Verse	*>Label>Verse	*>Label>Verse	*>Label>Verse	*>Label>Verse	*>Label>Verse	*>Label>Verse	*>Label>Verse
1IV7	G:maj7	.	.	62.324	newline	voice	1G 1b 1dd 1ff#
.	.	That's	.	.	.	.	.
.	.	the	.	.	.	.	.
.	.	way	.	.	.	.	.
.	.	_	.	.	.	.	.
.	.	it	.	.	.	.	.
.	.	be-	.	.	.	.	.
.	.	-gan	E	.	.	.	.
.	.	_	.	.	.	.	.
.	.	We	.	.	.	.	.
.	.	were	.	.	.	.	.
=26	=26	=26	=26	=26	=26	=26	=26
1IV7	G:maj7	hand-	.	64.872	.	voice	1G 1b 1dd 1ff#
.	.	-in-	.	.	.	.	.
.	.	-hand	E	.	.	.	.
.	.	_	.	.	.	.	.
.	.	Glenn	.	.	.	.	.
.	.	Mil-	.	.	.	.	.
.	.	-ler's	.	.	.	.	.
.	.	band	E	.	.	.	.
.	.	_	.	.	.	.	.
.	.	Was	.	.	.	.	.
=27	=27	=27	=27	=27	=27	=27	=27
1-VIIm7	C:9(13,#11)	bet-	.	67.42	.	voice	1C 1e 1g 1b
.	.	-ter	.	.	.	.	.
.	.	than	E	.	.	.	.
.	.	be-	.	.	.	.	.
.	.	-fore	F	.	.	.	.
.	.	_	.	.	.	.	.
=28	=28	=28	=28	=28	=28	=28	=28
1-VIIm7	C:9(13,#11)	.	.	69.968	.	voice	1C 1e 1g 1b
.	.	.	.	.	.	.	.
.	.	.	.	.	.	.	.
.	.	We	.	.	.	.	.
=29	=29	=29	=29	=29	=29	=29	=29
1VI7	B:9	yelled	.	72.515	.	voice	1B 1dd# 1ff# 1aa
.	.	and	.	.	.	.	.
.	.	screamed	.	.	.	.	.
.	.	_	.	.	.	.	.
.	.	for	.	.	.	.	.
.	.	more	F	.	.	.	.
.	.	_	.	.	.	.	.
=30	=30	=30	=30	=30	=30	=30	=30
1VI7	B:9	.	.	75.063	.	voice	1B 1dd# 1ff# 1aa
.	.	.	.	.	.	.	.
.	.	And	.	.	.	.	.
.	.	_	.	.	.	.	.
.	.	the	.	.	.	.	.
=31	=31	=31	=31	=31	=31	=31	=31
1IV7	G:maj7	Por-	F	77.611	newline	voice	1G 1b 1dd 1ff#
.	.	-ter	.	.	.	.	.
.	.	tune	G	.	.	.	.
.	.	_	.	.	.	.	.
.	.	_	.	.	.	.	.
.	.	_	.	.	.	.	.
=32	=32	=32	=32	=32	=32	=32	=32
1IV7	G:maj7	.	.	80.141	.	voice	1G 1b 1dd 1ff#
.	.	.	.	.	.	.	.
.	.	Made	.	.	.	.	.
.	.	us	.	.	.	.	.
=33	=33	=33	=33	=33	=33	=33	=33
1-VIIm7	C:9(13,#11)	dance	.	82.672	.	voice	1C 1e 1g 1b
.	.	a-	.	.	.	.	.
.	.	-cross	.	.	.	.	.
.	.	_	.	.	.	.	.
.	.	the	.	.	.	.	.
.	.	room	G	.	.	.	.
.	.	_	.	.	.	.	.
=34	=34	=34	=34	=34	=34	=34	=34
1-VIIm7	C:9(13,#11)	.	.	85.203	.	voice	1C 1e 1g 1b
.	.	.	.	.	.	.	.
.	.	.	.	.	.	.	.
.	.	It	.	.	.	.	.
=35	=35	=35	=35	=35	=35	=35	=35
1VI7	B:9	en-	.	87.733	.	voice	1B 1dd# 1ff# 1aa
.	.	-ded	.	.	.	.	.
.	.	all	.	.	.	.	.
.	.	_	.	.	.	.	.
.	.	too	.	.	.	.	.
.	.	soon	G	.	.	.	.
.	.	_	.	.	.	.	.
.	.	_	.	.	.	.	.
.	.	_	.	.	.	.	.
=36	=36	=36	=36	=36	=36	=36	=36
1VI7	B:9	.	.	90.264	.	voice	1B 1dd# 1ff# 1aa
=37	=37	=37	=37	=37	=37	=37	=37
*>Letter>C	*>Letter>C	*>Letter>C	*>Letter>C	*>Letter>C	*>Letter>C	*>Letter>C	*>Letter>C
*>Label>Chorus	*>Label>Chorus	*>Label>Chorus	*>Label>Chorus	*>Label>Chorus	*>Label>Chorus	*>Label>Chorus	*>Label>Chorus
1IV7	G:maj7	.	.	92.795	newline	voice	1G 1b 1dd 1ff#
.	.	And	.	.	.	.	.
.	.	on	.	.	.	.	.
.	.	the	.	.	.	.	.
.	.	way	.	.	.	.	.
.	.	_	.	.	.	.	.
.	.	back	.	.	.	.	.
.	.	home	H	.	.	.	.
.	.	_	.	.	.	.	.
.	.	I	.	.	.	.	.
=38	=38	=38	=38	=38	=38	=38	=38
1-VIm7	B-:9	pro-	.	95.317	.	voice	1B- 1dd 1ff 1aa
.	.	-mised	.	.	.	.	.
.	.	you'd	.	.	.	.	.
.	.	ne-	.	.	.	.	.
.	.	-ver	.	.	.	.	.
.	.	be	.	.	.	.	.
.	.	_	.	.	.	.	.
.	.	a-	.	.	.	.	.
.	.	_	.	.	.	.	.
.	.	-lone	H	.	.	.	.
=39	=39	=39	=39	=39	=39	=39	=39
2I	D:maj	_	.	97.839	.	voice	1D 1f# 1a
2IVc	G:maj/5	.	.	99.1	.	voice	2g 2b 2D
=40	=40	=40	=40	=40	=40	=40	=40
1I	D:maj	_	.	100.361	.	voice	1D 1f# 1a
.	.	.	.	.	.	.	.
.	.	.	.	.	.	.	.
=41	=41	=41	=41	=41	=41	=41	=41
*>Letter>D	*>Letter>D	*>Letter>D	*>Letter>D	*>Letter>D	*>Letter>D	*>Letter>D	*>Letter>D
*>Label>Bridge	*>Label>Bridge	*>Label>Bridge	*>Label>Bridge	*>Label>Bridge	*>Label>Bridge	*>Label>Bridge	*>Label>Bridge
1IV7	G:maj7	Hur-	.	102.883	newline	voice	1G 1b 1dd 1ff#
.	.	-ry,	.	.	.	.	.
.	.	don't	.	.	.	.	.
.	.	_	.	.	.	.	.
.	.	be	(a	.	.	.	.
.	.	late	A)	.	.	.	.
.	.	.	.	.	.	.	.
=42	=42	=42	=42	=42	=42	=42	=42
1ivm7	G:min9	I	.	105.426	.	voice	1G 1b- 1dd 1ff#
.	.	can't	.	.	.	.	.
.	.	har-	.	.	.	.	.
.	.	_	.	.	.	.	.
.	.	-dly	(a	.	.	.	.
.	.	wait	A)	.	.	.	.
.	.	_	.	.	.	.	.
.	.	I	.	.	.	.	.
=43	=43	=43	=43	=43	=43	=43	=43
1VI7	B:9	said	.	107.968	.	voice	1B 1dd# 1ff# 1aa
.	.	to	.	.	.	.	.
.	.	my-	.	.	.	.	.
.	.	-self	.	.	.	.	.
.	.	when	.	.	.	.	.
.	.	we're	.	.	.	.	.
=44	=44	=44	=44	=44	=44	=44	=44
1VI7	B:9	old	.	110.511	.	voice	1B 1dd# 1ff# 1aa
.	.	We'll	.	.	.	.	.
.	.	go	.	.	.	.	.
=45	=45	=45	=45	=45	=45	=45	=45
*>Letter>C	*>Letter>C	*>Letter>C	*>Letter>C	*>Letter>C	*>Letter>C	*>Letter>C	*>Letter>C
*>Label>Chorus	*>Label>Chorus	*>Label>Chorus	*>Label>Chorus	*>Label>Chorus	*>Label>Chorus	*>Label>Chorus	*>Label>Chorus
1IV7	G:maj7	dan-	.	113.054	newline	voice	1G 1b 1dd 1ff#
.	.	-cing	i	.	.	.	.
.	.	in	.	.	.	.	.
.	.	_	.	.	.	.	.
.	.	the	.	.	.	.	.
.	.	dark	J	.	.	.	.
.	.	_	.	.	.	.	.
.	.	.	.	.	.	.	.
=46	=46	=46	=46	=46	=46	=46	=46
1-VIm7	B-:9	Wal-	.	115.557	.	voice	1B- 1dd 1ff 1aa
.	.	-king	i	.	.	.	.
.	.	through	.	.	.	.	.
.	.	the	.	.	.	.	.
.	.	park	J	.	.	.	.
.	.	_	.	.	.	.	.
.	.	And	.	.	.	.	.
.	.	re-	.	.	.	.	.
.	.	-mi-	.	.	.	.	.
.	.	-nis-	(I	.	.	.	.
=47	=47	=47	=47	=47	=47	=47	=47
2I	D:maj	_	.	118.06	.	voice	1D 1f# 1a
.	.	-cing	i)	.	.	.	.
.	.	_	.	.	.	.	.
2IVc	G:maj/5	.	.	119.311	.	voice	2g 2b 2D
=48	=48	=48	=48	=48	=48	=48	=48
1I	D:maj	.	.	120.563	.	voice	1D 1f# 1a
=49	=49	=49	=49	=49	=49	=49	=49
*>Letter>B	*>Letter>B	*>Letter>B	*>Letter>B	*>Letter>B	*>Letter>B	*>Letter>B	*>Letter>B
*>Label>Verse	*>Label>Verse	*>Label>Verse	*>Label>Verse	*>Label>Verse	*>Label>Verse	*>Label>Verse	*>Label>Verse
1IV7	G:maj7	Fri-	.	123.066	newline	voice	1G 1b 1dd 1ff#
.	.	-day	.	.	.	.	.
.	.	night,	.	.	.	.	.
.	.	_	.	.	.	.	.
.	.	it	.	.	.	.	.
.	.	was	.	.	.	.	.
.	.	late	A	.	.	.	.
.	.	_	.	.	.	.	.
.	.	I	.	.	.	.	.
.	.	was	.	.	.	.	.
.	.	wal-	.	.	.	.	.
.	.	-king	.	.	.	.	.
.	.	you	.	.	.	.	.
.	.	home	.	.	.	.	.
=50	=50	=50	=50	=50	=50	=50	=50
1IV7	G:maj7	_	.	125.63	.	voice	1G 1b 1dd 1ff#
.	.	We	.	.	.	.	.
.	.	got	.	.	.	.	.
.	.	_	.	.	.	.	.
.	.	down	.	.	.	.	.
.	.	to	.	.	.	.	.
.	.	_	.	.	.	.	.
.	.	the	.	.	.	.	.
.	.	gate	A	.	.	.	.
.	.	And	.	.	.	.	.
.	.	I	.	.	.	.	.
.	.	was	.	.	.	.	.
=51	=51	=51	=51	=51	=51	=51	=51
1-VIIm7	C:9(13,#11)	dream-	.	128.195	.	voice	1C 1e 1g 1b
.	.	-ing	.	.	.	.	.
.	.	of	.	.	.	.	.
.	.	_	.	.	.	.	.
.	.	the	.	.	.	.	.
.	.	night	B	.	.	.	.
.	.	_	.	.	.	.	.
=52	=52	=52	=52	=52	=52	=52	=52
1-VIIm7	C:9(13,#11)	.	.	130.76	.	voice	1C 1e 1g 1b
=53	=53	=53	=53	=53	=53	=53	=53
1VI7	B:9	Would	.	133.325	.	voice	1B 1dd# 1ff# 1aa
.	.	it	.	.	.	.	.
.	.	turn	.	.	.	.	.
.	.	_	.	.	.	.	.
.	.	out	.	.	.	.	.
.	.	_	.	.	.	.	.
.	.	right?	B	.	.	.	.
=54	=54	=54	=54	=54	=54	=54	=54
1VI7	B:9	.	.	135.889	.	voice	1B 1dd# 1ff# 1aa
.	.	Now	.	.	.	.	.
.	.	as	.	.	.	.	.
.	.	the	.	.	.	.	.
=55	=55	=55	=55	=55	=55	=55	=55
1IV7	G:maj7	years	.	138.454	newline	voice	1G 1b 1dd 1ff#
.	.	roll	.	.	.	.	.
.	.	_	.	.	.	.	.
.	.	on	K	.	.	.	.
.	.	_	.	.	.	.	.
.	.	_	.	.	.	.	.
.	.	_	.	.	.	.	.
.	.	_	.	.	.	.	.
.	.	_	.	.	.	.	.
=56	=56	=56	=56	=56	=56	=56	=56
1IV7	G:maj7	_	.	140.975	.	voice	1G 1b 1dd 1ff#
.	.	_	.	.	.	.	.
.	.	_	.	.	.	.	.
.	.	.	.	.	.	.	.
.	.	Each	.	.	.	.	.
.	.	time	.	.	.	.	.
.	.	we	.	.	.	.	.
=57	=57	=57	=57	=57	=57	=57	=57
1-VIIm7	C:9(13,#11)	hear	.	143.497	.	voice	1C 1e 1g 1b
.	.	our	.	.	.	.	.
.	.	fa-	.	.	.	.	.
.	.	-v'rite	.	.	.	.	.
.	.	song	K	.	.	.	.
.	.	_	.	.	.	.	.
.	.	_	.	.	.	.	.
=58	=58	=58	=58	=58	=58	=58	=58
1-VIIm7	C:9(13,#11)	_	.	146.018	.	voice	1C 1e 1g 1b
.	.	.	.	.	.	.	.
.	.	.	.	.	.	.	.
.	.	.	.	.	.	.	.
.	.	The	.	.	.	.	.
=59	=59	=59	=59	=59	=59	=59	=59
1VI7	B:9	memo-	.	148.539	.	voice	1B 1dd# 1ff# 1aa
.	.	-ries	.	.	.	.	.
.	.	come	.	.	.	.	.
.	.	a-	.	.	.	.	.
.	.	-long	K	.	.	.	.
.	.	_	.	.	.	.	.
.	.	_	.	.	.	.	.
.	.	_	.	.	.	.	.
.	.	_	.	.	.	.	.
=60	=60	=60	=60	=60	=60	=60	=60
1VI7	B:9	.	.	151.061	.	voice	1B 1dd# 1ff# 1aa
=61	=61	=61	=61	=61	=61	=61	=61
*>Letter>C	*>Letter>C	*>Letter>C	*>Letter>C	*>Letter>C	*>Letter>C	*>Letter>C	*>Letter>C
*>Label>Chorus	*>Label>Chorus	*>Label>Chorus	*>Label>Chorus	*>Label>Chorus	*>Label>Chorus	*>Label>Chorus	*>Label>Chorus
1IV7	G:maj7	Ol-	.	153.582	newline	voice	1G 1b 1dd 1ff#
.	.	-der	.	.	.	.	.
.	.	times	.	.	.	.	.
.	.	_	.	.	.	.	.
.	.	we're	.	.	.	.	.
.	.	mis-	(I	.	.	.	.
.	.	-sing	i)	.	.	.	.
.	.	.	.	.	.	.	.
=62	=62	=62	=62	=62	=62	=62	=62
1-VIm7	B-:9	Spen-	.	156.102	.	voice	1B- 1dd 1ff 1aa
.	.	-ding	.	.	.	.	.
.	.	the	.	.	.	.	.
.	.	hours	.	.	.	.	.
.	.	_	.	.	.	.	.
.	.	re-	.	.	.	.	.
.	.	-mi-	.	.	.	.	.
.	.	-nis-	(I	.	.	.	.
.	.	_	.	.	.	.	.
.	.	-cing	i)	.	.	.	.
=63	=63	=63	=63	=63	=63	=63	=63
2I	D:maj	_	.	158.622	.	voice	1D 1f# 1a
2IVc	G:maj/5	.	.	159.882	.	voice	2g 2b 2D
=64	=64	=64	=64	=64	=64	=64	=64
1I	D:maj	.	.	161.142	.	voice	1D 1f# 1a
=65	=65	=65	=65	=65	=65	=65	=65
*>Letter>D	*>Letter>D	*>Letter>D	*>Letter>D	*>Letter>D	*>Letter>D	*>Letter>D	*>Letter>D
*>Label>Bridge	*>Label>Bridge	*>Label>Bridge	*>Label>Bridge	*>Label>Bridge	*>Label>Bridge	*>Label>Bridge	*>Label>Bridge
1IV7	G:maj7	Hur-	.	163.662	newline	voice	1G 1b 1dd 1ff#
.	.	-ry,	.	.	.	.	.
.	.	don't	.	.	.	.	.
.	.	_	.	.	.	.	.
.	.	be	.	.	.	.	.
.	.	late	A	.	.	.	.
.	.	.	.	.	.	.	.
=66	=66	=66	=66	=66	=66	=66	=66
1ivm7	G:min9	I	.	166.191	.	voice	1G 1b- 1dd 1ff#
.	.	can't	.	.	.	.	.
.	.	har-	.	.	.	.	.
.	.	_	.	.	.	.	.
.	.	-dly	.	.	.	.	.
.	.	wait	A	.	.	.	.
.	.	_	.	.	.	.	.
.	.	I	.	.	.	.	.
=67	=67	=67	=67	=67	=67	=67	=67
1VI7	B:9	said	.	168.719	.	voice	1B 1dd# 1ff# 1aa
.	.	to	.	.	.	.	.
.	.	my-	.	.	.	.	.
.	.	-self	.	.	.	.	.
.	.	when	.	.	.	.	.
.	.	we're	.	.	.	.	.
=68	=68	=68	=68	=68	=68	=68	=68
1VI7	B:9	_	.	171.248	.	voice	1B 1dd# 1ff# 1aa
.	.	old	.	.	.	.	.
.	.	_	.	.	.	.	.
.	.	We'll	.	.	.	.	.
.	.	go	.	.	.	.	.
=69	=69	=69	=69	=69	=69	=69	=69
*>Letter>C	*>Letter>C	*>Letter>C	*>Letter>C	*>Letter>C	*>Letter>C	*>Letter>C	*>Letter>C
*>Label>Chorus	*>Label>Chorus	*>Label>Chorus	*>Label>Chorus	*>Label>Chorus	*>Label>Chorus	*>Label>Chorus	*>Label>Chorus
1IV7	G:maj7	dan-	.	173.776	newline	voice	1G 1b 1dd 1ff#
.	.	-cing	.	.	.	.	.
.	.	in	.	.	.	.	.
.	.	_	.	.	.	.	.
.	.	the	.	.	.	.	.
.	.	dark	B	.	.	.	.
.	.	_	.	.	.	.	.
.	.	.	.	.	.	.	.
=70	=70	=70	=70	=70	=70	=70	=70
1-VIm7	B-:9	Wal-	.	176.279	.	voice	1B- 1dd 1ff 1aa
.	.	-king	.	.	.	.	.
.	.	through	.	.	.	.	.
.	.	the	.	.	.	.	.
.	.	park	B	.	.	.	.
.	.	_	.	.	.	.	.
.	.	And	.	.	.	.	.
.	.	re-	.	.	.	.	.
.	.	-mi-	(I	.	.	.	.
.	.	-nis-	i)	.	.	.	.
=71	=71	=71	=71	=71	=71	=71	=71
2I	D:maj	_	.	178.781	.	voice	1D 1f# 1a
.	.	-cing	.	.	.	.	.
.	.	_	.	.	.	.	.
2IVc	G:maj/5	.	.	180.032	.	voice	2g 2b 2D
=72	=72	=72	=72	=72	=72	=72	=72
1I	D:maj	.	.	181.284	.	voice	1D 1f# 1a
=73	=73	=73	=73	=73	=73	=73	=73
*>Letter>B	*>Letter>B	*>Letter>B	*>Letter>B	*>Letter>B	*>Letter>B	*>Letter>B	*>Letter>B
*>Label>Outro	*>Label>Outro	*>Label>Outro	*>Label>Outro	*>Label>Outro	*>Label>Outro	*>Label>Outro	*>Label>Outro
1IV7	G:maj7	.	.	183.786	newline	trumpet	1G 1b 1dd 1ff#
=74	=74	=74	=74	=74	=74	=74	=74
1IV7	G:maj7	.	.	186.272	.	trumpet	1G 1b 1dd 1ff#
=75	=75	=75	=75	=75	=75	=75	=75
1-VIIm7	C:9(13,#11)	.	.	188.758	.	trumpet	1C 1e 1g 1b
=76	=76	=76	=76	=76	=76	=76	=76
1-VIIm7	C:9(13,#11)	.	.	191.244	.	trumpet	1C 1e 1g 1b
=77	=77	=77	=77	=77	=77	=77	=77
1VI7	B:9	.	.	193.73	.	trumpet	1B 1dd# 1ff# 1aa
=78	=78	=78	=78	=78	=78	=78	=78
1VI7	B:9	.	.	196.216	.	trumpet	1B 1dd# 1ff# 1aa
1r;	N	.	.	207.403	.	r	1r;
1r;	N	.	.	211.578	.	r	1r;
*-	*-	*-	*-	*-	*-	*-	*-
!!!BillboardChartDate: 1978/08/19
!!!BillboardPeak: 3
!!!BillboardWeeksOnChart: 20
!!!COC: Little River Band
!!!ENC: Nathaniel Condit-Schultz
!!!EST: Awating manual error checking and editing.
!!!OTL: Reminiscing
!!!RDF**harte: Chris Harte's syntax, used by MIREX
!!!RDF**harmony: **recip + pitch class of root + harmonic quality
!!!RDF**leadinstrument: original McGill primary instrumentation annotation
!!!RDF**phrase: newline = linebreak in original McGill transcription
!!!RDF**timestamp: McGill audio timestamp in seconds
!!!RDT: 2017/01/12/
!!!SampleActualRank: 28
!!!SampleID#: 0077
!!!SampleTargetRank: 27
!!!MBID: 7a04eed0-b81a-4a6b-873a-a0efd903a38b
